public/icons/edit.svg

<?xml version="1.0" encoding="utf-8"?><!-- Uploaded to: SVG Repo, www.svgrepo.com, Generator: SVG Repo Mixer Tools -->
<svg width="800px" height="800px" viewBox="0 0 24 24" fill="none" xmlns="http://www.w3.org/2000/svg">
<path fill-rule="evenodd" clip-rule="evenodd" d="M22 12C22 17.5228 17.5228 22 12 22C6.47715 22 2 17.5228 2 12C2 6.47715 6.47715 2 12 2C17.5228 2 22 6.47715 22 12ZM16.0303 8.96967C16.3232 9.26256 16.3232 9.73744 16.0303 10.0303L11.0303 15.0303C10.7374 15.3232 10.2626 15.3232 9.96967 15.0303L7.96967 13.0303C7.67678 12.7374 7.67678 12.2626 7.96967 11.9697C8.26256 11.6768 8.73744 11.6768 9.03033 11.9697L10.5 13.4393L12.7348 11.2045L14.9697 8.96967C15.2626 8.67678 15.7374 8.67678 16.0303 8.96967Z" fill="#1C274C"/>
</svg>

<svg xmlns="http://www.w3.org/2000/svg" width="800" height="800" fill="none" viewBox="0 0 24 24"><path fill="#1c274c" fill-rule="evenodd" d="M22 12c0 5.523-4.477 10-10 10S2 17.523 2 12 6.477 2 12 2s10 4.477 10 10m-5.97-3.03a.75.75 0 0 1 0 1.06l-5 5a.75.75 0 0 1-1.06 0l-2-2a.75.75 0 1 1 1.06-1.06l1.47 1.47 2.235-2.235L14.97 8.97a.75.75 0 0 1 1.06 0" clip-rule="evenodd"/></svg>
